<?xml version="1.0" encoding="UTF-8"?>
<map version="1.10" tiledversion="1.11.2" orientation="orthogonal" renderorder="right-down" width="64" height="64" tilewidth="32" tileheight="32" infinite="0" nextlayerid="6" nextobjectid="1">
 <tileset firstgid="1" source="BasicMap.tsx"/>
 <layer id="1" name="Floor" width="64" height="64">
  <data encoding="csv">
1310,1311,1312,1313,1314,1310,1311,1312,1313,1314,1310,1311,1312,1313,1314,1310,1311,1312,1313,1314,1310,1311,1312,1313,1314,1310,1311,1312,1313,1314,1310,1311,1312,1313,1314,1310,1311,1312,1313,1314,1310,1311,1312,1313,1314,1310,1311,1312,1313,1314,1310,1311,1312,1313,1314,1310,1311,1312,1313,1314,1310,1311,1312,1313,
1360,1361,1362,1363,1364,1360,1361,1362,1363,1364,1360,1361,1362,1363,1364,1360,1361,1362,1363,1364,1360,1361,1362,1363,1364,1360,1361,1362,1363,1364,1360,1361,1362,1363,1364,1360,1361,1362,1363,1364,1360,1361,1362,1363,1364,1360,1361,1362,1363,1364,1360,1361,1362,1363,1364,1360,1361,1362,1363,1364,1360,1361,1362,1363,
1410,1411,1412,1413,1414,1410,1411,1412,1413,1414,1410,1411,1412,1413,1414,1410,1411,1412,1413,1414,1410,1411,1412,1413,1414,1410,1411,1412,1413,1414,1410,1411,1412,1413,1414,1410,1411,1412,1413,1414,1410,1411,1412,1413,1414,1410,1411,1412,1413,1414,1410,1411,1412,1413,1414,1410,1411,1412,1413,1414,1410,1411,1412,1413,
1460,1461,1462,1463,1464,1460,1461,1462,1463,1464,1460,1461,1462,1463,1464,1460,1461,1462,1463,1464,1460,1461,1462,1463,1464,1460,1461,1462,1463,1464,1460,1461,1462,1463,1464,1460,1461,1462,1463,1464,1460,1461,1462,1463,1464,1460,1461,1462,1463,1464,1460,1461,1462,1463,1464,1460,1461,1462,1463,1464,1460,1461,1462,1463,
1510,1511,1512,1513,1514,1510,1511,1512,1513,1514,1510,1511,1512,1513,1514,1510,1511,1512,1513,1514,1510,1511,1512,1513,1514,1510,1511,1512,1513,1514,1510,1511,1512,1513,1514,1510,1511,1512,1513,1514,1510,1511,1512,1513,1514,1510,1511,1512,1513,1514,1510,1511,1512,1513,1514,1510,1511,1512,1513,1514,1510,1511,1512,1513,
1310,1311,1312,1313,1314,1310,1311,1312,1313,1314,1310,1311,1312,1313,1314,1310,1311,1312,1313,1314,1310,1311,1312,1313,1314,1310,1311,1312,1313,1314,1310,1311,1312,1313,1314,1310,1311,1312,1313,1314,1310,1311,1312,1313,1314,1310,1311,1312,1313,1314,1310,1311,1312,1313,1314,1310,1311,1312,1313,1314,1310,1311,1312,1313,
1360,1361,1362,1363,1364,1360,1361,1362,1363,1364,1360,1361,1362,1363,1364,1360,1361,1362,1363,1364,1360,1361,1362,1363,1364,1360,1361,1362,1363,1364,1360,1361,1362,1363,1364,1360,1361,1362,1363,1364,1360,1361,1362,1363,1364,1360,1361,1362,1363,1364,1360,1361,1362,1363,1364,1360,1361,1362,1363,1364,1360,1361,1362,1363,
1410,1411,1412,1413,1414,1410,1411,1412,1413,1414,1410,1411,1412,1413,1414,1410,1411,1412,1413,1414,1410,1411,1412,1413,1414,1410,1411,1412,1413,1414,1410,1411,1412,1413,1414,1410,1411,1412,1413,1414,1410,1411,1412,1413,1414,1410,1411,1412,1413,1414,1410,1411,1412,1413,1414,1410,1411,1412,1413,1414,1410,1411,1412,1413,
1460,1461,1462,1463,1464,1460,1461,1462,1463,1464,1460,1461,1462,1463,1464,1460,1461,1462,1463,1464,1460,1461,1462,1463,1464,1460,1461,1462,1463,1464,1460,1461,1462,1463,1464,1460,1461,1462,1463,1464,1460,1461,1462,1463,1464,1460,1461,1462,1463,1464,1460,1461,1462,1463,1464,1460,1461,1462,1463,1464,1460,1461,1462,1463,
1510,1511,1512,1513,1514,1510,1511,1512,1513,1514,1510,1511,1512,1513,1514,1510,1511,1512,1513,1514,1510,1511,1512,1513,1514,1510,1511,1512,1513,1514,1510,1511,1512,1513,1514,1510,1511,1512,1513,1514,1510,1511,1512,1513,1514,1510,1511,1512,1513,1514,1510,1511,1512,1513,1514,1510,1511,1512,1513,1514,1510,1511,1512,1513,
1310,1311,1312,1313,1314,1310,1311,1312,1313,1314,1310,1311,1312,1313,1314,1310,1311,1312,1313,1314,1310,1311,1312,1313,1314,1310,1311,1312,1313,1314,1310,1311,1312,1313,1314,1310,1311,1312,1313,1314,1310,1311,1312,1313,1314,1310,1311,1312,1313,1314,1310,1311,1312,1313,1314,1310,1311,1312,1313,1314,1310,1311,1312,1313,
1360,1361,1362,1363,1364,1360,1361,1362,1363,1364,1360,1361,1362,1363,1364,1360,1361,1362,1363,1364,1360,1361,1362,1363,1364,1360,1361,1362,1363,1364,1360,1361,1362,1363,1364,1360,1361,1362,1363,1364,1360,1361,1362,1363,1364,1360,1361,1362,1363,1364,1360,1361,1362,1363,1364,1360,1361,1362,1363,1364,1360,1361,1362,1363,
1410,1411,1412,1413,1414,1410,1411,1412,1413,1414,1410,1411,1412,1413,1414,1410,1411,1412,1413,1414,1410,1411,1412,1413,1414,1410,1411,1412,1413,1414,1410,1411,1412,1413,1414,1410,1411,1412,1413,1414,1410,1411,1412,1413,1414,1410,1411,1412,1413,1414,1410,1411,1412,1413,1414,1410,1411,1412,1413,1414,1410,1411,1412,1413,
1460,1461,1462,1463,1464,1460,1461,1462,1463,1464,1460,1461,1462,1463,1464,1460,1461,1462,1463,1464,1460,1461,1462,1463,1464,1460,1461,1462,1463,1464,1460,1461,1462,1463,1464,1460,1461,1462,1463,1464,1460,1461,1462,1463,1464,1460,1461,1462,1463,1464,1460,1461,1462,1463,1464,1460,1461,1462,1463,1464,1460,1461,1462,1463,
1510,1511,1512,1513,1514,1510,1511,1512,1513,1514,1510,1511,1512,1513,1514,1510,1511,1512,1513,1514,1510,1511,1512,1513,1514,1510,1511,1512,1513,1514,1510,1511,1512,1513,1514,1510,1511,1512,1513,1514,1510,1511,1512,1513,1514,1510,1511,1512,1513,1514,1510,1511,1512,1513,1514,1510,1511,1512,1513,1514,1510,1511,1512,1513,
1310,1311,1312,1313,1314,1310,1311,1312,1313,1314,1310,1311,1312,1313,1314,1310,1311,1312,1313,1314,1310,1311,1312,1313,1314,1310,1311,1312,1313,1314,1310,1311,1312,1313,1314,1310,1311,1312,1313,1314,1310,1311,1312,1313,1314,1310,1311,1312,1313,1314,1310,1311,1312,1313,1314,1310,1311,1312,1313,1314,1310,1311,1312,1313,
1360,1361,1362,1363,1364,1360,1361,1362,1363,1364,1360,1361,1362,1363,1364,1360,1361,1362,1363,1364,1360,1361,1362,1363,1364,1360,1361,1362,1363,1364,1360,1361,1362,1363,1364,1360,1361,1362,1363,1364,1360,1361,1362,1363,1364,1360,1361,1362,1363,1364,1360,1361,1362,1363,1364,1360,1361,1362,1363,1364,1360,1361,1362,1363,
1410,1411,1412,1413,1414,1410,1411,1412,1413,1414,1410,1411,1412,1413,1414,1410,1411,1412,1413,1414,1410,1411,1412,1413,1414,1410,1411,1412,1413,1414,1410,1411,1412,1413,1414,1410,1411,1412,1413,1414,1410,1411,1412,1413,1414,1410,1411,1412,1413,1414,1410,1411,1412,1413,1414,1410,1411,1412,1413,1414,1410,1411,1412,1413,
1460,1461,1462,1463,1464,1460,1461,1462,1463,1464,1460,1461,1462,1463,1464,1460,1461,1462,1463,1464,1460,1461,1462,1463,1464,1460,1461,1462,1463,1464,1460,1461,1462,1463,1464,1460,1461,1462,1463,1464,1460,1461,1462,1463,1464,1460,1461,1462,1463,1464,1460,1461,1462,1463,1464,1460,1461,1462,1463,1464,1460,1461,1462,1463,
1510,1511,1512,1513,1514,1510,1511,1512,1513,1514,1510,1511,1512,1513,1514,1510,1511,1512,1513,1514,1510,1511,1512,1513,1514,1510,1511,1512,1513,1514,1510,1511,1512,1513,1514,1510,1511,1512,1513,1514,1510,1511,1512,1513,1514,1510,1511,1512,1513,1514,1510,1511,1512,1513,1514,1510,1511,1512,1513,1514,1510,1511,1512,1513,
1310,1311,1312,1313,1314,1310,1311,1312,1313,1314,1310,1311,1312,1313,1314,1310,1311,1312,1313,1314,1310,1311,1312,1313,1314,1310,1311,1312,1313,1314,1310,1311,1312,1313,1314,1310,1311,1312,1313,1314,1310,1311,1312,1313,1314,1310,1311,1312,1313,1314,1310,1311,1312,1313,1314,1310,1311,1312,1313,1314,1310,1311,1312,1313,
1360,1361,1362,1363,1364,1360,1361,1362,1363,1364,1360,1361,1362,1363,1364,1360,1361,1362,1363,1364,1360,1361,1362,1363,1364,1360,1361,1362,1363,1364,1360,1361,1362,1363,1364,1360,1361,1362,1363,1364,1360,1361,1362,1363,1364,1360,1361,1362,1363,1364,1360,1361,1362,1363,1364,1360,1361,1362,1363,1364,1360,1361,1362,1363,
1410,1411,1412,1413,1414,1410,1411,1412,1413,1414,1410,1411,1412,1413,1414,1410,1411,1412,1413,1414,1410,1411,1412,1413,1414,1410,1411,1412,1413,1414,1410,1411,1412,1413,1414,1410,1411,1412,1413,1414,1410,1411,1412,1413,1414,1410,1411,1412,1413,1414,1410,1411,1412,1413,1414,1410,1411,1412,1413,1414,1410,1411,1412,1413,
1460,1461,1462,1463,1464,1460,1461,1462,1463,1464,1460,1461,1462,1463,1464,1460,1461,1462,1463,1464,1460,1461,1462,1463,1464,1460,1461,1462,1463,1464,1460,1461,1462,1463,1464,1460,1461,1462,1463,1464,1460,1461,1462,1463,1464,1460,1461,1462,1463,1464,1460,1461,1462,1463,1464,1460,1461,1462,1463,1464,1460,1461,1462,1463,
1510,1511,1512,1513,1514,1510,1511,1512,1513,1514,1510,1511,1512,1513,1514,1510,1511,1512,1513,1514,1510,1511,1512,1513,1514,1510,1511,1512,1513,1514,1510,1511,1512,1513,1514,1510,1511,1512,1513,1514,1510,1511,1512,1513,1514,1510,1511,1512,1513,1514,1510,1511,1512,1513,1514,1510,1511,1512,1513,1514,1510,1511,1512,1513,
1310,1311,1312,1313,1314,1310,1311,1312,1313,1314,1310,1311,1312,1313,1314,1310,1311,1312,1313,1314,1310,1311,1312,1313,1314,1310,1311,1312,1313,1314,1310,1311,1312,1313,1314,1310,1311,1312,1313,1314,1310,1311,1312,1313,1314,1310,1311,1312,1313,1314,1310,1311,1312,1313,1314,1310,1311,1312,1313,1314,1310,1311,1312,1313,
1360,1361,1362,1363,1364,1360,1361,1362,1363,1364,1360,1361,1362,1363,1364,1360,1361,1362,1363,1364,1360,1361,1362,1363,1364,1360,1361,1362,1363,1364,1360,1361,1362,1363,1364,1360,1361,1362,1363,1364,1360,1361,1362,1363,1364,1360,1361,1362,1363,1364,1360,1361,1362,1363,1364,1360,1361,1362,1363,1364,1360,1361,1362,1363,
1410,1411,1412,1413,1414,1410,1411,1412,1413,1414,1410,1411,1412,1413,1414,1410,1411,1412,1413,1414,1410,1411,1412,1413,1414,1410,1411,1412,1413,1414,1410,1411,1412,1413,1414,1410,1411,1412,1413,1414,1410,1411,1412,1413,1414,1410,1411,1412,1413,1414,1410,1411,1412,1413,1414,1410,1411,1412,1413,1414,1410,1411,1412,1413,
1460,1461,1462,1463,1464,1460,1461,1462,1463,1464,1460,1461,1462,1463,1464,1460,1461,1462,1463,1464,1460,1461,1462,1463,1464,1460,1461,1462,1463,1464,1460,1461,1462,1463,1464,1460,1461,1462,1463,1464,1460,1461,1462,1463,1464,1460,1461,1462,1463,1464,1460,1461,1462,1463,1464,1460,1461,1462,1463,1464,1460,1461,1462,1463,
1510,1511,1512,1513,1514,1510,1511,1512,1513,1514,1510,1511,1512,1513,1514,1510,1511,1512,1513,1514,1510,1511,1512,1513,1514,1510,1511,1512,1513,1514,1510,1511,1512,1513,1514,1510,1511,1512,1513,1514,1510,1511,1512,1513,1514,1510,1511,1512,1513,1514,1510,1511,1512,1513,1514,1510,1511,1512,1513,1514,1510,1511,1512,1513,
1310,1311,1312,1313,1314,1310,1311,1312,1313,1314,1310,1311,1312,1313,1314,1310,1311,1312,1313,1314,1310,1311,1312,1313,1314,1310,1311,1312,1313,1314,1310,1311,1312,1313,1314,1310,1311,1312,1313,1314,1310,1311,1312,1313,1314,1310,1311,1312,1313,1314,1310,1311,1312,1313,1314,1310,1311,1312,1313,1314,1310,1311,1312,1313,
1360,1361,1362,1363,1364,1360,1361,1362,1363,1364,1360,1361,1362,1363,1364,1360,1361,1362,1363,1364,1360,1361,1362,1363,1364,1360,1361,1362,1363,1364,1360,1361,1362,1363,1364,1360,1361,1362,1363,1364,1360,1361,1362,1363,1364,1360,1361,1362,1363,1364,1360,1361,1362,1363,1364,1360,1361,1362,1363,1364,1360,1361,1362,1363,
1410,1411,1412,1413,1414,1410,1411,1412,1413,1414,1410,1411,1412,1413,1414,1410,1411,1412,1413,1414,1410,1411,1412,1413,1414,1410,1411,1412,1413,1414,1410,1411,1412,1413,1414,1410,1411,1412,1413,1414,1410,1411,1412,1413,1414,1410,1411,1412,1413,1414,1410,1411,1412,1413,1414,1410,1411,1412,1413,1414,1410,1411,1412,1413,
1460,1461,1462,1463,1464,1460,1461,1462,1463,1464,1460,1461,1462,1463,1464,1460,1461,1462,1463,1464,1460,1461,1462,1463,1464,1460,1461,1462,1463,1464,1460,1461,1462,1463,1464,1460,1461,1462,1463,1464,1460,1461,1462,1463,1464,1460,1461,1462,1463,1464,1460,1461,1462,1463,1464,1460,1461,1462,1463,1464,1460,1461,1462,1463,
1510,1511,1512,1513,1514,1510,1511,1512,1513,1514,1510,1511,1512,1513,1514,1510,1511,1512,1513,1514,1510,1511,1512,1513,1514,1510,1511,1512,1513,1514,1510,1511,1512,1513,1514,1510,1511,1512,1513,1514,1510,1511,1512,1513,1514,1510,1511,1512,1513,1514,1510,1511,1512,1513,1514,1510,1511,1512,1513,1514,1510,1511,1512,1513,
1310,1311,1312,1313,1314,1310,1311,1312,1313,1314,1310,1311,1312,1313,1314,1310,1311,1312,1313,1314,1310,1311,1312,1313,1314,1310,1311,1312,1313,1314,1310,1311,1312,1313,1314,1310,1311,1312,1313,1314,1310,1311,1312,1313,1314,1310,1311,1312,1313,1314,1310,1311,1312,1313,1314,1310,1311,1312,1313,1314,1310,1311,1312,1313,
1360,1361,1362,1363,1364,1360,1361,1362,1363,1364,1360,1361,1362,1363,1364,1360,1361,1362,1363,1364,1360,1361,1362,1363,1364,1360,1361,1362,1363,1364,1360,1361,1362,1363,1364,1360,1361,1362,1363,1364,1360,1361,1362,1363,1364,1360,1361,1362,1363,1364,1360,1361,1362,1363,1364,1360,1361,1362,1363,1364,1360,1361,1362,1363,
1410,1411,1412,1413,1414,1410,1411,1412,1413,1414,1410,1411,1412,1413,1414,1410,1411,1412,1413,1414,1410,1411,1412,1413,1414,1410,1411,1412,1413,1414,1410,1411,1412,1413,1414,1410,1411,1412,1413,1414,1410,1411,1412,1413,1414,1410,1411,1412,1413,1414,1410,1411,1412,1413,1414,1410,1411,1412,1413,1414,1410,1411,1412,1413,
1460,1461,1462,1463,1464,1460,1461,1462,1463,1464,1460,1461,1462,1463,1464,1460,1461,1462,1463,1464,1460,1461,1462,1463,1464,1460,1461,1462,1463,1464,1460,1461,1462,1463,1464,1460,1461,1462,1463,1464,1460,1461,1462,1463,1464,1460,1461,1462,1463,1464,1460,1461,1462,1463,1464,1460,1461,1462,1463,1464,1460,1461,1462,1463,
1510,1511,1512,1513,1514,1510,1511,1512,1513,1514,1510,1511,1512,1513,1514,1510,1511,1512,1513,1514,1510,1511,1512,1513,1514,1510,1511,1512,1513,1514,1510,1511,1512,1513,1514,1510,1511,1512,1513,1514,1510,1511,1512,1513,1514,1510,1511,1512,1513,1514,1510,1511,1512,1513,1514,1510,1511,1512,1513,1514,1510,1511,1512,1513,
1310,1311,1312,1313,1314,1310,1311,1312,1313,1314,1310,1311,1312,1313,1314,1310,1311,1312,1313,1314,1310,1311,1312,1313,1314,1310,1311,1312,1313,1314,1310,1311,1312,1313,1314,1310,1311,1312,1313,1314,1310,1311,1312,1313,1314,1310,1311,1312,1313,1314,1310,1311,1312,1313,1314,1310,1311,1312,1313,1314,1310,1311,1312,1313,
1360,1361,1362,1363,1364,1360,1361,1362,1363,1364,1360,1361,1362,1363,1364,1360,1361,1362,1363,1364,1360,1361,1362,1363,1364,1360,1361,1362,1363,1364,1360,1361,1362,1363,1364,1360,1361,1362,1363,1364,1360,1361,1362,1363,1364,1360,1361,1362,1363,1364,1360,1361,1362,1363,1364,1360,1361,1362,1363,1364,1360,1361,1362,1363,
1410,1411,1412,1413,1414,1410,1411,1412,1413,1414,1410,1411,1412,1413,1414,1410,1411,1412,1413,1414,1410,1411,1412,1413,1414,1410,1411,1412,1413,1414,1410,1411,1412,1413,1414,1410,1411,1412,1413,1414,1410,1411,1412,1413,1414,1410,1411,1412,1413,1414,1410,1411,1412,1413,1414,1410,1411,1412,1413,1414,1410,1411,1412,1413,
1460,1461,1462,1463,1464,1460,1461,1462,1463,1464,1460,1461,1462,1463,1464,1460,1461,1462,1463,1464,1460,1461,1462,1463,1464,1460,1461,1462,1463,1464,1460,1461,1462,1463,1464,1460,1461,1462,1463,1464,1460,1461,1462,1463,1464,1460,1461,1462,1463,1464,1460,1461,1462,1463,1464,1460,1461,1462,1463,1464,1460,1461,1462,1463,
1510,1511,1512,1513,1514,1510,1511,1512,1513,1514,1510,1511,1512,1513,1514,1510,1511,1512,1513,1514,1510,1511,1512,1513,1514,1510,1511,1512,1513,1514,1510,1511,1512,1513,1514,1510,1511,1512,1513,1514,1510,1511,1512,1513,1514,1510,1511,1512,1513,1514,1510,1511,1512,1513,1514,1510,1511,1512,1513,1514,1510,1511,1512,1513,
1310,1311,1312,1313,1314,1310,1311,1312,1313,1314,1310,1311,1312,1313,1314,1310,1311,1312,1313,1314,1310,1311,1312,1313,1314,1310,1311,1312,1313,1314,1310,1311,1312,1313,1314,1310,1311,1312,1313,1314,1310,1311,1312,1313,1314,1310,1311,1312,1313,1314,1310,1311,1312,1313,1314,1310,1311,1312,1313,1314,1310,1311,1312,1313,
1360,1361,1362,1363,1364,1360,1361,1362,1363,1364,1360,1361,1362,1363,1364,1360,1361,1362,1363,1364,1360,1361,1362,1363,1364,1360,1361,1362,1363,1364,1360,1361,1362,1363,1364,1360,1361,1362,1363,1364,1360,1361,1362,1363,1364,1360,1361,1362,1363,1364,1360,1361,1362,1363,1364,1360,1361,1362,1363,1364,1360,1361,1362,1363,
1410,1411,1412,1413,1414,1410,1411,1412,1413,1414,1410,1411,1412,1413,1414,1410,1411,1412,1413,1414,1410,1411,1412,1413,1414,1410,1411,1412,1413,1414,1410,1411,1412,1413,1414,1410,1411,1412,1413,1414,1410,1411,1412,1413,1414,1410,1411,1412,1413,1414,1410,1411,1412,1413,1414,1410,1411,1412,1413,1414,1410,1411,1412,1413,
1460,1461,1462,1463,1464,1460,1461,1462,1463,1464,1460,1461,1462,1463,1464,1460,1461,1462,1463,1464,1460,1461,1462,1463,1464,1460,1461,1462,1463,1464,1460,1461,1462,1463,1464,1460,1461,1462,1463,1464,1460,1461,1462,1463,1464,1460,1461,1462,1463,1464,1460,1461,1462,1463,1464,1460,1461,1462,1463,1464,1460,1461,1462,1463,
1510,1511,1512,1513,1514,1510,1511,1512,1513,1514,1510,1511,1512,1513,1514,1510,1511,1512,1513,1514,1510,1511,1512,1513,1514,1510,1511,1512,1513,1514,1510,1511,1512,1513,1514,1510,1511,1512,1513,1514,1510,1511,1512,1513,1514,1510,1511,1512,1513,1514,1510,1511,1512,1513,1514,1510,1511,1512,1513,1514,1510,1511,1512,1513,
1310,1311,1312,1313,1314,1310,1311,1312,1313,1314,1310,1311,1312,1313,1314,1310,1311,1312,1313,1314,1310,1311,1312,1313,1314,1310,1311,1312,1313,1314,1310,1311,1312,1313,1314,1310,1311,1312,1313,1314,1310,1311,1312,1313,1314,1310,1311,1312,1313,1314,1310,1311,1312,1313,1314,1310,1311,1312,1313,1314,1310,1311,1312,1313,
1360,1361,1362,1363,1364,1360,1361,1362,1363,1364,1360,1361,1362,1363,1364,1360,1361,1362,1363,1364,1360,1361,1362,1363,1364,1360,1361,1362,1363,1364,1360,1361,1362,1363,1364,1360,1361,1362,1363,1364,1360,1361,1362,1363,1364,1360,1361,1362,1363,1364,1360,1361,1362,1363,1364,1360,1361,1362,1363,1364,1360,1361,1362,1363,
1410,1411,1412,1413,1414,1410,1411,1412,1413,1414,1410,1411,1412,1413,1414,1410,1411,1412,1413,1414,1410,1411,1412,1413,1414,1410,1411,1412,1413,1414,1410,1411,1412,1413,1414,1410,1411,1412,1413,1414,1410,1411,1412,1413,1414,1410,1411,1412,1413,1414,1410,1411,1412,1413,1414,1410,1411,1412,1413,1414,1410,1411,1412,1413,
1460,1461,1462,1463,1464,1460,1461,1462,1463,1464,1460,1461,1462,1463,1464,1460,1461,1462,1463,1464,1460,1461,1462,1463,1464,1460,1461,1462,1463,1464,1460,1461,1462,1463,1464,1460,1461,1462,1463,1464,1460,1461,1462,1463,1464,1460,1461,1462,1463,1464,1460,1461,1462,1463,1464,1460,1461,1462,1463,1464,1460,1461,1462,1463,
1510,1511,1512,1513,1514,1510,1511,1512,1513,1514,1510,1511,1512,1513,1514,1510,1511,1512,1513,1514,1510,1511,1512,1513,1514,1510,1511,1512,1513,1514,1510,1511,1512,1513,1514,1510,1511,1512,1513,1514,1510,1511,1512,1513,1514,1510,1511,1512,1513,1514,1510,1511,1512,1513,1514,1510,1511,1512,1513,1514,1510,1511,1512,1513,
1310,1311,1312,1313,1314,1310,1311,1312,1313,1314,1310,1311,1312,1313,1314,1310,1311,1312,1313,1314,1310,1311,1312,1313,1314,1310,1311,1312,1313,1314,1310,1311,1312,1313,1314,1310,1311,1312,1313,1314,1310,1311,1312,1313,1314,1310,1311,1312,1313,1314,1310,1311,1312,1313,1314,1310,1311,1312,1313,1314,1310,1311,1312,1313,
1360,1361,1362,1363,1364,1360,1361,1362,1363,1364,1360,1361,1362,1363,1364,1360,1361,1362,1363,1364,1360,1361,1362,1363,1364,1360,1361,1362,1363,1364,1360,1361,1362,1363,1364,1360,1361,1362,1363,1364,1360,1361,1362,1363,1364,1360,1361,1362,1363,1364,1360,1361,1362,1363,1364,1360,1361,1362,1363,1364,1360,1361,1362,1363,
1410,1411,1412,1413,1414,1410,1411,1412,1413,1414,1410,1411,1412,1413,1414,1410,1411,1412,1413,1414,1410,1411,1412,1413,1414,1410,1411,1412,1413,1414,1410,1411,1412,1413,1414,1410,1411,1412,1413,1414,1410,1411,1412,1413,1414,1410,1411,1412,1413,1414,1410,1411,1412,1413,1414,1410,1411,1412,1413,1414,1410,1411,1412,1413,
1460,1461,1462,1463,1464,1460,1461,1462,1463,1464,1460,1461,1462,1463,1464,1460,1461,1462,1463,1464,1460,1461,1462,1463,1464,1460,1461,1462,1463,1464,1460,1461,1462,1463,1464,1460,1461,1462,1463,1464,1460,1461,1462,1463,1464,1460,1461,1462,1463,1464,1460,1461,1462,1463,1464,1460,1461,1462,1463,1464,1460,1461,1462,1463,
1510,1511,1512,1513,1514,1510,1511,1512,1513,1514,1510,1511,1512,1513,1514,1510,1511,1512,1513,1514,1510,1511,1512,1513,1514,1510,1511,1512,1513,1514,1510,1511,1512,1513,1514,1510,1511,1512,1513,1514,1510,1511,1512,1513,1514,1510,1511,1512,1513,1514,1510,1511,1512,1513,1514,1510,1511,1512,1513,1514,1510,1511,1512,1513,
1310,1311,1312,1313,1314,1310,1311,1312,1313,1314,1310,1311,1312,1313,1314,1310,1311,1312,1313,1314,1310,1311,1312,1313,1314,1310,1311,1312,1313,1314,1310,1311,1312,1313,1314,1310,1311,1312,1313,1314,1310,1311,1312,1313,1314,1310,1311,1312,1313,1314,1310,1311,1312,1313,1314,1310,1311,1312,1313,1314,1310,1311,1312,1313,
1360,1361,1362,1363,1364,1360,1361,1362,1363,1364,1360,1361,1362,1363,1364,1360,1361,1362,1363,1364,1360,1361,1362,1363,1364,1360,1361,1362,1363,1364,1360,1361,1362,1363,1364,1360,1361,1362,1363,1364,1360,1361,1362,1363,1364,1360,1361,1362,1363,1364,1360,1361,1362,1363,1364,1360,1361,1362,1363,1364,1360,1361,1362,1363,
1410,1411,1412,1413,1414,1410,1411,1412,1413,1414,1410,1411,1412,1413,1414,1410,1411,1412,1413,1414,1410,1411,1412,1413,1414,1410,1411,1412,1413,1414,1410,1411,1412,1413,1414,1410,1411,1412,1413,1414,1410,1411,1412,1413,1414,1410,1411,1412,1413,1414,1410,1411,1412,1413,1414,1410,1411,1412,1413,1414,1410,1411,1412,1413,
1460,1461,1462,1463,1464,1460,1461,1462,1463,1464,1460,1461,1462,1463,1464,1460,1461,1462,1463,1464,1460,1461,1462,1463,1464,1460,1461,1462,1463,1464,1460,1461,1462,1463,1464,1460,1461,1462,1463,1464,1460,1461,1462,1463,1464,1460,1461,1462,1463,1464,1460,1461,1462,1463,1464,1460,1461,1462,1463,1464,1460,1461,1462,1463
</data>
 </layer>
 <layer id="2" name="Floor Details" width="64" height="64">
  <data encoding="csv">
0,0,0,0,0,0,0,0,0,0,0,0,0,0,0,0,0,0,0,0,0,0,0,0,0,0,0,0,0,0,0,0,0,0,0,0,0,0,0,0,0,0,0,0,0,0,0,0,0,0,0,0,0,0,0,0,0,0,0,0,0,0,0,0,
0,0,0,0,0,0,0,0,0,0,0,0,0,0,0,0,0,0,0,0,0,0,0,0,0,0,0,0,0,0,0,0,0,0,0,0,0,0,0,0,0,0,0,0,0,0,0,0,0,0,0,0,0,0,0,0,0,0,0,0,0,0,0,0,
0,0,0,0,0,0,0,0,0,0,0,0,0,0,0,0,0,0,0,0,0,0,0,0,0,0,0,0,0,0,0,0,0,0,0,0,0,0,0,0,0,0,0,0,0,0,0,0,0,0,0,0,0,0,0,0,0,0,0,0,0,0,0,0,
0,0,0,0,0,0,0,0,0,0,0,0,0,0,0,0,0,0,0,0,0,0,0,0,0,0,0,0,0,0,0,0,0,0,0,0,0,0,0,0,0,0,0,0,0,0,0,0,0,0,0,0,0,0,0,0,0,0,0,0,0,0,0,0,
0,0,0,0,0,0,0,0,0,0,0,0,0,0,0,0,0,0,0,0,0,0,0,0,0,0,0,0,0,0,0,0,0,0,0,0,0,0,0,0,0,0,0,0,0,0,0,0,0,0,0,0,0,0,0,0,0,0,0,0,0,0,0,0,
0,0,0,0,0,0,0,0,0,0,0,0,0,0,0,0,0,0,0,0,0,0,0,0,0,0,0,0,0,0,0,0,0,0,0,0,0,0,0,0,0,0,0,0,0,0,0,0,0,0,0,0,0,0,0,0,0,0,0,0,0,0,0,0,
0,0,0,0,0,0,0,0,0,0,0,0,0,0,0,0,0,0,0,0,0,0,0,0,0,0,0,0,0,0,0,0,0,0,0,0,0,0,0,0,0,0,0,0,0,0,0,0,0,0,0,0,0,0,0,0,0,0,0,0,0,0,0,0,
0,0,0,0,0,0,0,0,0,0,0,0,0,0,0,0,0,0,0,0,0,0,0,0,0,0,0,0,0,0,0,0,0,0,0,0,0,0,0,0,0,0,0,0,0,0,0,0,0,0,0,0,0,0,0,0,0,0,0,0,0,0,0,0,
0,0,0,0,0,0,0,0,0,0,0,0,0,0,0,0,0,0,0,0,0,0,0,0,0,0,0,0,0,0,0,0,0,0,0,0,0,0,0,0,0,0,0,0,0,0,0,0,0,0,0,0,0,0,0,0,0,0,0,0,0,0,0,0,
0,0,0,0,0,0,0,0,0,0,0,0,0,0,0,0,0,0,0,0,0,0,0,0,0,0,0,0,0,0,0,0,0,0,0,0,0,0,0,0,0,0,0,0,0,0,0,0,0,0,0,0,0,0,0,0,0,0,0,0,0,0,0,0,
0,0,0,0,0,0,0,0,0,0,0,0,0,0,0,0,0,0,0,0,0,0,0,0,0,0,0,0,0,0,0,0,0,0,0,0,0,0,0,0,0,0,0,0,0,0,0,0,0,0,0,0,0,0,0,0,0,0,0,0,0,0,0,0,
0,0,0,0,0,0,0,0,0,0,0,0,0,0,0,0,0,0,0,0,0,0,0,0,0,0,0,0,0,0,0,0,0,0,0,0,0,0,0,0,0,0,0,0,0,0,0,0,0,0,0,0,0,0,0,0,0,0,0,0,0,0,0,0,
0,0,0,0,0,0,0,0,0,0,0,0,0,0,0,0,0,0,0,0,0,0,0,0,0,0,0,0,0,0,0,0,0,0,0,0,0,0,0,0,0,0,0,0,0,0,0,0,0,0,0,0,0,0,0,0,0,0,0,0,0,0,0,0,
0,0,0,0,0,0,0,0,0,0,0,0,0,0,0,0,0,0,0,0,0,0,0,0,0,0,0,0,0,0,0,0,0,0,0,0,0,0,0,0,0,0,0,0,0,0,0,0,0,0,0,0,0,0,0,0,0,0,0,0,0,0,0,0,
0,0,0,0,0,0,0,0,0,0,0,0,0,0,0,0,0,0,0,0,0,0,0,0,0,0,0,0,0,0,0,0,0,0,0,0,0,0,0,0,0,0,0,0,0,0,0,0,0,0,0,0,0,0,0,0,0,0,0,0,0,0,0,0,
0,0,0,0,0,0,0,0,0,0,0,0,0,0,0,0,0,0,0,0,0,0,0,0,0,0,0,0,0,0,0,0,0,0,0,0,0,0,0,0,0,0,0,0,0,0,0,0,0,0,0,0,0,0,0,0,0,0,0,0,0,0,0,0,
0,0,0,0,0,0,0,0,0,0,0,0,0,0,0,0,0,0,0,0,0,0,0,0,0,0,0,0,0,0,0,0,0,0,0,0,0,0,0,0,0,0,0,0,0,0,0,0,0,0,0,0,0,0,0,0,0,0,0,0,0,0,0,0,
0,0,0,0,0,0,0,0,0,0,0,0,0,0,0,0,0,0,0,0,0,0,0,0,0,0,0,0,0,0,0,0,0,0,0,0,0,0,0,0,0,0,0,0,0,0,0,0,0,0,0,0,0,0,0,0,0,0,0,0,0,0,0,0,
0,0,0,0,0,0,0,0,0,0,0,0,0,0,0,0,0,0,0,423,424,425,426,427,428,429,0,0,0,0,0,0,0,0,0,0,0,0,0,0,0,0,0,0,0,0,0,0,0,0,0,0,0,0,0,0,0,0,0,0,0,0,0,0,
0,0,0,0,0,0,0,0,0,0,0,0,0,0,0,0,0,0,0,473,474,475,476,477,478,479,0,0,474,0,0,0,0,0,0,0,0,0,0,0,0,0,0,0,0,0,0,0,0,0,0,0,0,0,0,0,0,0,0,0,0,0,0,0,
0,0,0,0,0,0,0,0,0,0,0,0,0,0,0,0,0,474,475,476,524,525,526,527,528,475,476,477,524,579,0,0,0,0,0,0,0,0,0,0,0,0,0,0,0,0,0,0,0,0,0,0,0,0,0,0,0,0,0,0,0,0,0,0,
0,0,0,0,0,0,0,0,0,0,0,0,0,0,0,0,0,573,574,575,576,575,576,577,578,525,526,527,628,629,0,0,0,0,0,0,0,0,0,0,0,0,0,0,0,0,0,0,0,0,0,0,0,0,0,0,0,0,0,0,0,0,0,0,
0,0,0,0,0,0,0,0,0,0,0,0,0,0,0,0,0,623,624,625,626,625,626,627,628,675,676,677,678,679,0,0,0,0,0,0,0,0,0,0,0,0,0,0,0,0,0,0,0,0,0,0,0,0,0,0,0,0,0,0,0,0,0,0,
0,0,0,0,0,0,0,0,0,0,0,0,0,0,0,0,0,673,674,675,676,675,676,677,678,725,725,727,728,729,0,0,0,0,0,0,0,0,0,0,0,0,0,0,0,0,0,0,0,0,0,0,0,0,0,0,0,0,0,0,0,0,0,0,
0,0,0,0,0,0,0,0,0,0,0,0,0,0,0,0,0,723,775,776,724,725,726,727,728,775,775,777,778,0,0,0,0,0,0,0,0,0,0,0,0,0,0,0,0,0,0,0,0,0,0,0,0,0,0,0,0,0,0,0,0,0,0,0,
0,0,0,0,0,0,0,0,0,0,0,0,0,0,0,0,0,0,0,773,774,775,776,777,778,779,0,0,0,0,0,0,0,0,0,0,0,0,0,0,0,0,0,0,0,0,0,0,0,0,0,0,0,0,0,0,0,0,0,0,0,0,0,0,
0,0,0,0,0,0,0,0,0,0,0,0,0,0,0,0,0,0,0,0,0,0,0,0,0,0,0,0,0,0,0,0,0,0,0,0,0,0,0,0,0,0,0,0,0,0,0,0,0,0,0,0,0,0,0,0,0,0,0,0,0,0,0,0,
0,0,0,0,0,0,0,0,0,0,0,0,0,0,0,0,0,0,0,0,0,0,0,0,0,0,0,0,0,0,0,0,0,0,0,0,0,0,0,0,0,0,0,0,0,0,0,0,0,0,0,0,0,0,0,0,0,0,0,0,0,0,0,0,
0,0,0,0,0,0,0,0,0,0,0,0,0,0,0,0,0,0,0,0,0,0,0,0,0,0,0,0,0,0,0,0,0,0,0,0,0,0,0,0,0,0,0,0,0,0,0,0,0,0,0,0,0,0,0,0,0,0,0,0,0,0,0,0,
0,0,0,0,0,0,0,0,0,0,0,0,0,0,0,0,0,0,0,0,0,0,0,0,0,0,0,0,0,0,0,0,0,0,0,0,0,0,0,0,0,0,0,0,0,0,0,0,0,0,0,0,0,0,0,0,0,0,0,0,0,0,0,0,
0,0,0,0,0,0,0,0,0,0,0,0,0,0,0,0,0,0,0,0,0,0,0,0,0,0,0,0,0,0,0,0,0,0,0,0,0,0,0,0,0,0,0,0,0,0,0,0,0,0,0,0,0,0,0,0,0,0,0,0,0,0,0,0,
0,0,0,0,0,0,0,0,0,0,0,0,0,0,0,0,0,0,0,0,0,0,0,0,0,0,0,0,0,0,0,0,0,0,0,0,0,0,0,0,0,0,0,0,0,0,0,0,0,0,0,0,0,0,0,0,0,0,0,0,0,0,0,0,
0,0,0,0,0,0,0,0,0,0,0,0,0,0,0,0,0,0,0,0,0,0,0,0,0,0,0,0,0,0,0,0,0,0,0,0,0,0,0,0,0,0,0,0,0,0,0,0,0,0,0,0,0,0,0,0,0,0,0,0,0,0,0,0,
0,0,0,0,0,0,0,0,0,0,0,0,0,0,0,0,0,0,0,0,0,0,0,0,0,0,0,0,0,0,0,0,0,0,0,0,0,0,0,0,0,0,0,0,0,0,0,0,0,0,0,0,0,0,0,0,0,0,0,0,0,0,0,0,
0,0,0,0,0,0,0,0,0,0,0,0,0,0,0,0,0,0,0,0,0,0,0,0,0,0,0,0,0,0,0,0,0,0,0,0,0,0,0,0,0,0,0,0,0,0,0,0,0,0,0,0,0,0,0,0,0,0,0,0,0,0,0,0,
0,0,0,0,0,0,0,0,0,0,0,0,0,0,0,0,0,0,0,0,0,0,0,0,0,0,0,0,0,0,0,0,0,0,0,0,0,0,0,0,0,0,0,0,0,0,0,0,0,0,0,0,0,0,0,0,0,0,0,0,0,0,0,0,
0,0,0,0,0,0,0,0,0,0,0,0,0,0,0,0,0,0,0,0,0,0,0,0,0,0,0,0,0,0,0,0,0,0,0,0,0,0,0,0,0,0,0,0,0,0,0,0,0,0,0,0,0,0,0,0,0,0,0,0,0,0,0,0,
0,0,0,0,0,0,0,0,0,0,0,0,0,0,0,0,0,0,0,0,0,0,0,0,0,0,0,0,0,0,0,0,0,0,0,0,0,0,0,0,0,0,0,0,0,0,0,0,0,0,0,0,0,0,0,0,0,0,0,0,0,0,0,0,
0,0,0,0,0,0,0,0,0,0,0,0,0,0,0,0,0,0,0,0,0,0,0,0,0,0,0,0,0,0,0,0,0,0,0,0,0,0,0,0,0,0,0,0,0,0,0,0,0,0,0,0,0,0,0,0,0,0,0,0,0,0,0,0,
0,0,0,0,0,0,0,0,0,0,0,0,0,0,0,0,0,0,0,0,0,0,0,0,0,0,0,0,0,0,0,0,0,0,0,0,0,0,0,0,0,0,0,0,0,0,0,0,0,0,0,0,0,0,0,0,0,0,0,0,0,0,0,0,
0,0,0,0,0,0,0,0,0,0,0,0,0,0,0,0,0,0,0,0,0,0,0,0,0,0,0,0,0,0,0,0,0,0,0,0,0,0,0,0,0,0,0,0,0,0,0,0,0,0,0,0,0,0,0,0,0,0,0,0,0,0,0,0,
0,0,0,0,0,0,0,0,0,0,0,0,0,0,0,0,0,0,0,0,0,0,0,0,0,0,0,0,0,0,0,0,0,0,0,0,0,0,0,0,0,0,0,0,0,0,0,0,0,0,0,0,0,0,0,0,0,0,0,0,0,0,0,0,
0,0,0,0,0,0,0,0,0,0,0,0,0,0,0,0,0,0,0,0,0,0,0,0,0,0,0,0,0,0,0,0,0,0,0,0,0,0,0,0,0,0,0,0,0,0,0,0,0,0,0,0,0,0,0,0,0,0,0,0,0,0,0,0,
0,0,0,0,0,0,0,0,0,0,0,0,0,0,0,0,0,0,0,0,0,0,0,0,0,0,0,0,0,0,0,0,0,0,0,0,0,0,0,0,0,0,0,0,0,0,0,0,0,0,0,0,0,0,0,0,0,0,0,0,0,0,0,0,
0,0,0,0,0,0,0,0,0,0,0,0,0,0,0,0,0,0,0,0,0,0,0,0,0,0,0,0,0,0,0,0,0,0,0,0,0,0,0,0,0,0,0,0,0,0,0,0,0,0,0,0,0,0,0,0,0,0,0,0,0,0,0,0,
0,0,0,0,0,0,0,0,0,0,0,0,0,0,0,0,0,0,0,0,0,0,0,0,0,0,0,0,0,0,0,0,0,0,0,0,0,0,0,0,0,0,0,0,0,0,0,0,0,0,0,0,0,0,0,0,0,0,0,0,0,0,0,0,
0,0,0,0,0,0,0,0,0,0,0,0,0,0,0,0,0,0,0,0,0,0,0,0,0,0,0,0,0,0,0,0,0,0,0,0,0,0,0,0,0,0,0,0,0,0,0,0,0,0,0,0,0,0,0,0,0,0,0,0,0,0,0,0,
0,0,0,0,0,0,0,0,0,0,0,0,0,0,0,0,0,0,0,0,0,0,0,0,0,0,0,0,0,0,0,0,0,0,0,0,0,0,0,0,0,0,0,0,0,0,0,0,0,0,0,0,0,0,0,0,0,0,0,0,0,0,0,0,
0,0,0,0,0,0,0,0,0,0,0,0,0,0,0,0,0,0,0,0,0,0,0,0,0,0,0,0,0,0,0,0,0,0,0,0,0,0,0,0,0,0,0,0,0,0,0,0,0,0,0,0,0,0,0,0,0,0,0,0,0,0,0,0,
0,0,0,0,0,0,0,0,0,0,0,0,0,0,0,0,0,0,0,0,0,0,0,0,0,0,0,0,0,0,0,0,0,0,0,0,0,0,0,0,0,0,0,0,0,0,0,0,0,0,0,0,0,0,0,0,0,0,0,0,0,0,0,0,
0,0,0,0,0,0,0,0,0,0,0,0,0,0,0,0,0,0,0,0,0,0,0,0,0,0,0,0,0,0,0,0,0,0,0,0,0,0,0,0,0,0,0,0,0,0,0,0,0,0,0,0,0,0,0,0,0,0,0,0,0,0,0,0,
0,0,0,0,0,0,0,0,0,0,0,0,0,0,0,0,0,0,0,0,0,0,0,0,0,0,0,0,0,0,0,0,0,0,0,0,0,0,0,0,0,0,0,0,0,0,0,0,0,0,0,0,0,0,0,0,0,0,0,0,0,0,0,0,
0,0,0,0,0,0,0,0,0,0,0,0,0,0,0,0,0,0,0,0,0,0,0,0,0,0,0,0,0,0,0,0,0,0,0,0,0,0,0,0,0,0,0,0,0,0,0,0,0,0,0,0,0,0,0,0,0,0,0,0,0,0,0,0,
0,0,0,0,0,0,0,0,0,0,0,0,0,0,0,0,0,0,0,0,0,0,0,0,0,0,0,0,0,0,0,0,0,0,0,0,0,0,0,0,0,0,0,0,0,0,0,0,0,0,0,0,0,0,0,0,0,0,0,0,0,0,0,0,
0,0,0,0,0,0,0,0,0,0,0,0,0,0,0,0,0,0,0,0,0,0,0,0,0,0,0,0,0,0,0,0,0,0,0,0,0,0,0,0,0,0,0,0,0,0,0,0,0,0,0,0,0,0,0,0,0,0,0,0,0,0,0,0,
0,0,0,0,0,0,0,0,0,0,0,0,0,0,0,0,0,0,0,0,0,0,0,0,0,0,0,0,0,0,0,0,0,0,0,0,0,0,0,0,0,0,0,0,0,0,0,0,0,0,0,0,0,0,0,0,0,0,0,0,0,0,0,0,
0,0,0,0,0,0,0,0,0,0,0,0,0,0,0,0,0,0,0,0,0,0,0,0,0,0,0,0,0,0,0,0,0,0,0,0,0,0,0,0,0,0,0,0,0,0,0,0,0,0,0,0,0,0,0,0,0,0,0,0,0,0,0,0,
0,0,0,0,0,0,0,0,0,0,0,0,0,0,0,0,0,0,0,0,0,0,0,0,0,0,0,0,0,0,0,0,0,0,0,0,0,0,0,0,0,0,0,0,0,0,0,0,0,0,0,0,0,0,0,0,0,0,0,0,0,0,0,0,
0,0,0,0,0,0,0,0,0,0,0,0,0,0,0,0,0,0,0,0,0,0,0,0,0,0,0,0,0,0,0,0,0,0,0,0,0,0,0,0,0,0,0,0,0,0,0,0,0,0,0,0,0,0,0,0,0,0,0,0,0,0,0,0,
0,0,0,0,0,0,0,0,0,0,0,0,0,0,0,0,0,0,0,0,0,0,0,0,0,0,0,0,0,0,0,0,0,0,0,0,0,0,0,0,0,0,0,0,0,0,0,0,0,0,0,0,0,0,0,0,0,0,0,0,0,0,0,0,
0,0,0,0,0,0,0,0,0,0,0,0,0,0,0,0,0,0,0,0,0,0,0,0,0,0,0,0,0,0,0,0,0,0,0,0,0,0,0,0,0,0,0,0,0,0,0,0,0,0,0,0,0,0,0,0,0,0,0,0,0,0,0,0,
0,0,0,0,0,0,0,0,0,0,0,0,0,0,0,0,0,0,0,0,0,0,0,0,0,0,0,0,0,0,0,0,0,0,0,0,0,0,0,0,0,0,0,0,0,0,0,0,0,0,0,0,0,0,0,0,0,0,0,0,0,0,0,0,
0,0,0,0,0,0,0,0,0,0,0,0,0,0,0,0,0,0,0,0,0,0,0,0,0,0,0,0,0,0,0,0,0,0,0,0,0,0,0,0,0,0,0,0,0,0,0,0,0,0,0,0,0,0,0,0,0,0,0,0,0,0,0,0,
0,0,0,0,0,0,0,0,0,0,0,0,0,0,0,0,0,0,0,0,0,0,0,0,0,0,0,0,0,0,0,0,0,0,0,0,0,0,0,0,0,0,0,0,0,0,0,0,0,0,0,0,0,0,0,0,0,0,0,0,0,0,0,0
</data>
 </layer>
 <layer id="3" name="Objects" width="64" height="64">
  <data encoding="csv">
0,0,0,0,0,0,0,0,0,0,0,0,0,0,0,0,0,0,0,0,0,0,0,0,0,0,0,0,0,0,0,0,0,0,0,0,0,0,0,0,0,0,0,0,0,0,0,0,0,0,0,0,0,0,0,0,0,0,0,0,0,0,0,0,
0,0,0,0,0,0,0,0,0,0,0,0,0,0,0,0,0,0,0,0,0,0,0,0,0,0,0,0,0,0,0,0,0,0,0,0,0,0,0,0,0,0,0,0,0,0,0,0,0,0,0,0,0,0,0,0,0,0,0,0,0,0,0,0,
0,0,0,0,0,0,0,0,0,0,0,0,0,0,0,0,0,0,0,0,0,0,0,0,0,0,0,0,0,0,0,0,0,0,0,0,0,0,0,0,0,0,0,0,0,0,0,0,0,0,0,0,0,0,0,0,0,0,0,0,0,0,0,0,
0,0,0,0,0,0,0,0,0,0,0,0,0,0,0,0,0,0,0,0,0,0,0,0,0,0,0,0,0,0,0,0,0,0,0,0,0,0,0,0,0,0,0,0,0,0,0,0,0,0,0,0,0,0,0,0,0,0,0,0,0,0,0,0,
0,0,0,0,0,0,0,0,0,0,0,0,0,0,0,0,0,0,0,0,0,0,0,0,0,0,0,0,0,0,0,0,0,0,0,0,0,0,0,0,0,0,0,0,0,0,0,0,0,0,0,0,0,0,0,0,0,0,0,0,0,0,0,0,
0,0,0,0,0,0,0,0,0,0,0,0,0,0,0,0,0,0,0,0,0,0,0,0,0,0,0,0,0,0,0,0,0,0,0,0,0,0,0,0,0,0,0,0,0,0,0,0,0,0,0,0,0,0,0,0,0,0,0,0,0,0,0,0,
0,0,0,0,0,0,0,0,0,0,0,0,0,0,0,0,0,0,0,0,0,0,0,0,0,0,0,0,0,0,0,0,0,0,0,0,0,0,0,0,0,0,0,0,0,0,0,0,0,0,0,0,0,0,0,0,0,0,0,0,0,0,0,0,
0,0,0,0,0,0,0,0,0,0,0,0,0,0,0,0,0,0,0,0,0,0,0,0,0,0,0,0,0,0,0,0,0,0,0,0,0,0,0,0,0,0,0,0,0,0,0,0,0,0,0,0,0,0,0,0,0,0,0,0,0,0,0,0,
0,0,0,0,0,0,0,0,0,0,0,0,0,0,0,0,0,0,0,0,0,0,0,0,0,0,0,0,0,0,0,0,0,0,0,0,0,0,0,0,0,0,0,0,0,0,0,0,0,0,0,0,0,0,0,0,0,0,0,0,0,0,0,0,
0,0,0,0,0,0,0,0,0,0,0,0,0,0,0,0,0,0,0,0,0,0,0,0,0,0,0,0,0,0,0,0,0,0,0,0,0,0,0,0,0,0,0,0,0,0,0,0,0,0,0,0,0,0,0,0,0,0,0,0,0,0,0,0,
0,0,0,0,0,0,0,0,0,0,0,0,0,0,0,0,0,0,0,0,0,0,0,0,0,0,0,0,0,0,0,0,0,0,0,0,0,0,0,0,0,0,0,0,0,0,0,0,0,0,0,0,0,0,0,0,0,0,0,0,0,0,0,0,
0,0,0,0,0,0,0,0,0,0,0,0,0,0,0,0,0,0,0,0,0,0,0,0,0,0,0,0,0,0,0,0,0,0,0,0,0,0,0,0,0,0,0,0,0,0,0,0,0,0,0,0,0,0,0,0,0,0,0,0,0,0,0,0,
0,0,0,0,0,0,0,0,0,0,0,0,0,0,0,0,0,0,0,0,0,0,0,0,0,0,0,0,0,0,0,0,0,0,0,0,0,0,0,0,0,0,0,0,0,0,0,0,0,0,0,0,0,0,0,0,0,0,0,0,0,0,0,0,
0,0,0,0,0,0,0,0,0,0,0,0,0,0,0,0,0,0,0,0,0,0,0,0,0,0,0,0,0,0,0,0,0,0,0,0,0,0,0,0,0,0,0,0,0,0,0,0,0,0,0,0,0,0,0,0,0,0,0,0,0,0,0,0,
0,0,0,0,0,0,0,0,0,0,0,0,0,0,0,0,0,0,0,0,0,0,0,0,0,0,0,0,0,0,0,0,0,0,0,0,0,0,0,0,0,0,0,0,0,0,0,0,0,0,0,0,0,0,0,0,0,0,0,0,0,0,0,0,
0,0,0,0,0,0,0,0,0,0,0,0,0,0,0,0,0,0,0,0,0,0,0,0,0,0,0,0,0,0,0,0,0,0,0,0,0,0,0,0,0,0,0,0,0,0,0,0,0,0,0,0,0,0,0,0,0,0,0,0,0,0,0,0,
0,0,0,0,0,0,0,0,0,0,0,0,0,0,0,0,0,0,0,0,0,0,0,0,0,0,0,0,0,0,0,0,0,0,0,0,0,0,0,0,0,0,0,0,0,0,0,0,0,0,0,0,0,0,0,0,0,0,0,0,0,0,0,0,
0,0,0,0,0,0,0,0,0,0,0,0,0,0,0,0,0,0,0,0,0,0,0,0,0,0,0,0,0,0,0,0,0,0,0,0,0,0,0,0,0,0,0,0,0,0,0,0,0,0,0,0,0,0,0,0,0,0,0,0,0,0,0,0,
0,0,0,0,0,0,0,0,0,0,0,0,0,0,0,0,0,0,0,0,0,0,0,0,0,0,0,0,0,0,0,0,0,0,0,0,0,0,0,0,0,0,0,0,0,0,0,0,0,0,0,0,0,0,0,0,0,0,0,0,0,0,0,0,
0,0,0,0,0,0,0,0,0,0,0,0,0,0,0,0,0,0,0,0,0,0,0,0,0,0,0,0,0,0,0,0,0,0,0,0,0,0,0,0,0,0,0,0,0,0,0,0,0,0,0,0,0,0,0,0,0,0,0,0,0,0,0,0,
0,0,0,0,0,0,0,0,0,0,0,0,0,0,0,0,0,0,0,0,0,0,0,0,0,0,0,0,0,0,0,0,0,0,0,0,0,0,0,0,0,0,0,0,0,0,0,0,0,0,0,0,0,0,0,0,0,0,0,0,0,0,0,0,
0,0,0,0,0,0,0,0,0,0,0,0,0,0,0,0,0,0,0,0,0,0,0,0,0,0,0,0,0,0,0,0,0,0,0,0,0,0,0,0,0,0,0,0,0,0,0,0,0,0,0,0,0,0,0,0,0,0,0,0,0,0,0,0,
0,0,0,0,0,0,0,0,0,0,0,0,0,0,0,0,0,0,0,0,0,0,0,0,0,0,0,0,0,0,0,0,0,0,0,0,0,0,0,0,0,0,0,0,0,0,0,0,0,0,0,0,0,0,0,0,0,0,0,0,0,0,0,0,
0,0,0,0,0,0,0,0,0,0,0,0,0,0,0,0,0,0,0,0,0,0,0,0,0,0,0,0,0,0,0,0,0,0,0,0,0,0,0,0,0,0,0,0,0,0,0,0,0,0,0,0,0,0,0,0,0,0,0,0,0,0,0,0,
0,0,0,0,0,0,0,0,0,0,0,0,0,0,0,0,0,0,0,0,0,0,0,0,0,0,0,0,0,0,0,0,0,0,0,0,0,0,0,0,0,0,0,0,0,0,0,0,0,0,0,0,0,0,0,0,0,0,0,0,0,0,0,0,
0,0,0,0,0,0,0,0,0,0,0,0,0,0,0,0,0,0,0,0,0,0,0,0,0,0,0,0,0,0,0,0,0,0,0,0,0,0,0,0,0,0,0,0,0,0,0,0,0,0,0,0,0,0,0,0,0,0,0,0,0,0,0,0,
0,0,0,0,0,0,0,0,0,0,0,0,0,0,0,0,0,0,0,0,0,0,0,0,0,0,0,0,0,0,0,0,0,0,0,0,0,0,0,0,0,0,0,0,0,0,0,0,0,0,0,0,0,0,0,0,0,0,0,0,0,0,0,0,
0,0,0,0,0,0,0,0,0,0,0,0,0,0,0,0,0,0,0,0,0,0,0,0,0,0,0,0,0,0,0,0,0,0,0,0,0,0,0,0,0,0,0,0,0,0,0,0,0,0,0,0,0,0,0,0,0,0,0,0,0,0,0,0,
0,0,0,0,0,0,0,0,0,0,0,0,0,0,0,0,0,0,0,0,0,0,0,0,0,0,0,0,0,0,0,0,0,0,0,0,0,0,0,0,0,0,0,0,0,0,0,0,0,0,0,0,0,0,0,0,0,0,0,0,0,0,0,0,
0,0,0,0,0,0,0,0,0,0,0,0,0,0,0,0,0,0,0,0,0,0,0,0,0,0,0,0,0,0,0,0,0,0,0,0,0,0,0,0,0,0,0,0,0,0,0,0,0,0,0,0,0,0,0,0,0,0,0,0,0,0,0,0,
0,0,0,0,0,0,0,0,0,0,0,0,0,0,0,0,0,0,0,0,0,0,0,0,0,0,0,0,0,0,0,0,0,0,0,0,0,0,0,0,0,0,0,0,0,0,0,0,0,0,0,0,0,0,0,0,0,0,0,0,0,0,0,0,
0,0,0,0,0,0,0,0,0,0,0,0,0,0,0,0,0,0,0,0,0,0,0,0,0,0,0,0,0,0,0,0,0,0,0,0,0,0,0,0,0,0,0,0,0,0,0,0,0,0,0,0,0,0,0,0,0,0,0,0,0,0,0,0,
0,0,0,0,0,0,0,0,0,0,0,0,0,0,0,0,0,0,0,0,0,0,0,0,0,0,0,0,0,0,0,0,0,0,0,0,0,0,0,0,0,0,0,0,0,0,0,0,0,0,0,0,0,0,0,0,0,0,0,0,0,0,0,0,
0,0,0,0,0,0,0,0,0,0,0,0,0,0,0,0,0,0,0,0,0,0,0,0,0,0,0,0,0,0,0,0,0,0,0,0,0,0,0,0,0,0,0,0,0,0,0,0,0,0,0,0,0,0,0,0,0,0,0,0,0,0,0,0,
0,0,0,0,0,0,0,0,0,0,0,0,0,0,0,0,0,0,0,0,0,0,0,0,0,0,0,0,0,0,0,0,0,0,0,0,0,0,0,0,0,0,0,0,0,0,0,0,0,0,0,0,0,0,0,0,0,0,0,0,0,0,0,0,
0,0,0,0,0,0,0,0,0,0,0,0,0,0,0,0,0,0,0,0,0,0,0,0,0,0,0,0,0,0,0,0,0,0,0,0,0,0,0,0,0,0,0,0,0,0,0,0,0,0,0,0,0,0,0,0,0,0,0,0,0,0,0,0,
0,0,0,0,0,0,0,0,0,0,0,0,0,0,0,0,0,0,0,0,0,0,0,0,0,0,0,0,0,0,0,0,0,0,0,0,0,0,0,0,0,0,0,0,0,0,0,0,0,0,0,0,0,0,0,0,0,0,0,0,0,0,0,0,
0,0,0,0,0,0,0,0,0,0,0,0,0,0,0,0,0,0,0,0,0,0,0,0,0,0,0,0,0,0,0,0,0,0,0,0,0,0,0,0,0,0,0,0,0,0,0,0,0,0,0,0,0,0,0,0,0,0,0,0,0,0,0,0,
0,0,0,0,0,0,0,0,0,0,0,0,0,0,0,0,0,0,0,0,0,0,0,0,0,0,0,0,0,0,0,0,0,0,0,0,0,0,0,0,0,0,0,0,0,0,0,0,0,0,0,0,0,0,0,0,0,0,0,0,0,0,0,0,
0,0,0,0,0,0,0,0,0,0,0,0,0,0,0,0,0,0,0,0,0,0,0,0,0,0,0,0,0,0,0,0,0,0,0,0,0,0,0,0,0,0,0,0,0,0,0,0,0,0,0,0,0,0,0,0,0,0,0,0,0,0,0,0,
0,0,0,0,0,0,0,0,0,0,0,0,0,0,0,0,0,0,0,0,0,0,0,0,0,0,0,0,0,0,0,0,0,0,0,0,0,0,0,0,0,0,0,0,0,0,0,0,0,0,0,0,0,0,0,0,0,0,0,0,0,0,0,0,
0,0,0,0,0,0,0,0,0,0,0,0,0,0,0,0,0,0,0,0,0,0,0,0,0,0,0,0,0,0,0,0,0,0,0,0,0,0,0,0,0,0,0,0,0,0,0,0,0,0,0,0,0,0,0,0,0,0,0,0,0,0,0,0,
0,0,0,0,0,0,0,0,0,0,0,0,0,0,0,0,0,0,0,0,0,0,0,0,0,0,0,0,0,0,0,0,0,0,0,0,0,0,0,0,0,0,0,0,0,0,0,0,0,0,0,0,0,0,0,0,0,0,0,0,0,0,0,0,
0,0,0,0,0,0,0,0,0,0,0,0,0,0,0,0,0,0,0,0,0,0,0,0,0,0,0,0,0,0,0,0,0,0,0,0,0,0,0,0,0,0,0,0,0,0,0,0,0,0,0,0,0,0,0,0,0,0,0,0,0,0,0,0,
0,0,0,0,0,0,0,0,0,0,0,0,0,0,0,0,0,0,0,0,0,0,0,0,0,0,0,0,0,0,0,0,0,0,0,0,0,0,0,0,0,0,0,0,0,0,0,0,0,0,0,0,0,0,0,0,0,0,0,0,0,0,0,0,
0,0,0,0,0,0,0,0,0,0,0,0,0,0,0,0,0,0,0,0,0,0,0,0,0,0,0,0,0,0,0,0,0,0,0,0,0,0,0,0,0,0,0,0,0,0,0,0,0,0,0,0,0,0,0,0,0,0,0,0,0,0,0,0,
0,0,0,0,0,0,0,0,0,0,0,0,0,0,0,0,0,0,0,0,0,0,0,0,0,0,0,0,0,0,0,0,0,0,0,0,0,0,0,0,0,0,0,0,0,0,0,0,0,0,0,0,0,0,0,0,0,0,0,0,0,0,0,0,
0,0,0,0,0,0,0,0,0,0,0,0,0,0,0,0,0,0,0,0,0,0,0,0,0,0,0,0,0,0,0,0,0,0,0,0,0,0,0,0,0,0,0,0,0,0,0,0,0,0,0,0,0,0,0,0,0,0,0,0,0,0,0,0,
0,0,0,0,0,0,0,0,0,0,0,0,0,0,0,0,0,0,0,0,0,0,0,0,0,0,0,0,0,0,0,0,0,0,0,0,0,0,0,0,0,0,0,0,0,0,0,0,0,0,0,0,0,0,0,0,0,0,0,0,0,0,0,0,
0,0,0,0,0,0,0,0,0,0,0,0,0,0,0,0,0,0,0,0,0,0,0,0,0,0,0,0,0,0,0,0,0,0,0,0,0,0,0,0,0,0,0,0,0,0,0,0,0,0,0,0,0,0,0,0,0,0,0,0,0,0,0,0,
0,0,0,0,0,0,0,0,0,0,0,0,0,0,0,0,0,0,0,0,0,0,0,0,0,0,0,0,0,0,0,0,0,0,0,0,0,0,0,0,0,0,0,0,0,0,0,0,0,0,0,0,0,0,0,0,0,0,0,0,0,0,0,0,
0,0,0,0,0,0,0,0,0,0,0,0,0,0,0,0,0,0,0,0,0,0,0,0,0,0,0,0,0,0,0,0,0,0,0,0,0,0,0,0,0,0,0,0,0,0,0,0,0,0,0,0,0,0,0,0,0,0,0,0,0,0,0,0,
0,0,0,0,0,0,0,0,0,0,0,0,0,0,0,0,0,0,0,0,0,0,0,0,0,0,0,0,0,0,0,0,0,0,0,0,0,0,0,0,0,0,0,0,0,0,0,0,0,0,0,0,0,0,0,0,0,0,0,0,0,0,0,0,
0,0,0,0,0,0,0,0,0,0,0,0,0,0,0,0,0,0,0,0,0,0,0,0,0,0,0,0,0,0,0,0,0,0,0,0,0,0,0,0,0,0,0,0,0,0,0,0,0,0,0,0,0,0,0,0,0,0,0,0,0,0,0,0,
0,0,0,0,0,0,0,0,0,0,0,0,0,0,0,0,0,0,0,0,0,0,0,0,0,0,0,0,0,0,0,0,0,0,0,0,0,0,0,0,0,0,0,0,0,0,0,0,0,0,0,0,0,0,0,0,0,0,0,0,0,0,0,0,
0,0,0,0,0,0,0,0,0,0,0,0,0,0,0,0,0,0,0,0,0,0,0,0,0,0,0,0,0,0,0,0,0,0,0,0,0,0,0,0,0,0,0,0,0,0,0,0,0,0,0,0,0,0,0,0,0,0,0,0,0,0,0,0,
0,0,0,0,0,0,0,0,0,0,0,0,0,0,0,0,0,0,0,0,0,0,0,0,0,0,0,0,0,0,0,0,0,0,0,0,0,0,0,0,0,0,0,0,0,0,0,0,0,0,0,0,0,0,0,0,0,0,0,0,0,0,0,0,
0,0,0,0,0,0,0,0,0,0,0,0,0,0,0,0,0,0,0,0,0,0,0,0,0,0,0,0,0,0,0,0,0,0,0,0,0,0,0,0,0,0,0,0,0,0,0,0,0,0,0,0,0,0,0,0,0,0,0,0,0,0,0,0,
0,0,0,0,0,0,0,0,0,0,0,0,0,0,0,0,0,0,0,0,0,0,0,0,0,0,0,0,0,0,0,0,0,0,0,0,0,0,0,0,0,0,0,0,0,0,0,0,0,0,0,0,0,0,0,0,0,0,0,0,0,0,0,0,
0,0,0,0,0,0,0,0,0,0,0,0,0,0,0,0,0,0,0,0,0,0,0,0,0,0,0,0,0,0,0,0,0,0,0,0,0,0,0,0,0,0,0,0,0,0,0,0,0,0,0,0,0,0,0,0,0,0,0,0,0,0,0,0,
0,0,0,0,0,0,0,0,0,0,0,0,0,0,0,0,0,0,0,0,0,0,0,0,0,0,0,0,0,0,0,0,0,0,0,0,0,0,0,0,0,0,0,0,0,0,0,0,0,0,0,0,0,0,0,0,0,0,0,0,0,0,0,0,
0,0,0,0,0,0,0,0,0,0,0,0,0,0,0,0,0,0,0,0,0,0,0,0,0,0,0,0,0,0,0,0,0,0,0,0,0,0,0,0,0,0,0,0,0,0,0,0,0,0,0,0,0,0,0,0,0,0,0,0,0,0,0,0,
0,0,0,0,0,0,0,0,0,0,0,0,0,0,0,0,0,0,0,0,0,0,0,0,0,0,0,0,0,0,0,0,0,0,0,0,0,0,0,0,0,0,0,0,0,0,0,0,0,0,0,0,0,0,0,0,0,0,0,0,0,0,0,0,
0,0,0,0,0,0,0,0,0,0,0,0,0,0,0,0,0,0,0,0,0,0,0,0,0,0,0,0,0,0,0,0,0,0,0,0,0,0,0,0,0,0,0,0,0,0,0,0,0,0,0,0,0,0,0,0,0,0,0,0,0,0,0,0
</data>
 </layer>
 <layer id="4" name="Gameplay" width="64" height="64">
  <data encoding="csv">
0,0,0,0,0,0,0,0,0,0,0,0,0,0,0,0,0,0,0,0,0,0,0,0,0,0,0,0,0,0,0,0,0,0,0,0,0,0,0,0,0,0,0,0,0,0,0,0,0,0,0,0,0,0,0,0,0,0,0,0,0,0,0,0,
0,0,0,0,0,0,0,0,0,0,0,0,0,0,0,0,0,0,0,0,0,0,0,0,0,0,0,0,0,0,0,0,0,0,0,0,0,0,0,0,0,0,0,0,0,0,0,0,0,0,0,0,0,0,0,0,0,0,0,0,0,0,0,0,
0,0,0,0,0,0,0,0,0,0,0,0,0,0,0,0,0,0,0,0,0,0,0,0,0,0,0,0,0,0,0,0,0,0,0,0,0,0,0,0,0,0,0,0,0,0,0,0,0,0,0,0,0,0,0,0,0,0,0,0,0,0,0,0,
0,0,0,0,0,0,0,0,0,0,0,0,0,0,0,0,0,0,0,0,0,0,0,0,0,0,0,0,0,0,0,0,0,0,0,0,0,0,0,0,0,0,0,0,0,0,0,0,0,0,0,0,0,0,0,0,0,0,0,0,0,0,0,0,
0,0,0,0,0,0,0,0,0,0,0,0,0,0,0,0,0,0,0,0,0,0,0,0,0,0,0,0,0,0,0,0,0,0,0,0,0,0,0,0,0,0,0,0,0,0,0,0,0,0,0,0,0,0,0,0,0,0,0,0,0,0,0,0,
0,0,0,0,0,0,0,0,0,0,0,0,0,0,0,0,0,0,0,0,0,0,0,0,0,0,0,0,0,0,0,0,0,0,0,0,0,0,0,0,0,0,0,0,0,0,0,0,0,0,0,0,0,0,0,0,0,0,0,0,0,0,0,0,
0,0,0,0,0,0,0,0,0,0,0,0,0,0,0,0,0,0,0,0,0,0,0,0,0,0,0,0,0,0,0,0,0,0,0,0,0,0,0,0,0,0,0,0,0,0,0,0,0,0,0,0,0,0,0,0,0,0,0,0,0,0,0,0,
0,0,0,0,0,0,0,0,0,0,0,0,0,0,0,0,0,0,0,0,0,0,0,0,0,0,0,0,0,0,0,0,0,0,0,0,0,0,0,0,0,0,0,0,0,0,0,0,0,0,0,0,0,0,0,0,0,0,0,0,0,0,0,0,
0,0,0,0,0,0,0,0,0,0,0,0,0,0,0,0,0,0,0,0,0,0,0,0,0,0,0,0,0,0,0,0,0,0,0,0,0,0,0,0,0,0,0,0,0,0,0,0,0,0,0,0,0,0,0,0,0,0,0,0,0,0,0,0,
0,0,0,0,0,0,0,0,0,0,0,0,0,0,0,0,0,0,0,0,0,0,0,0,0,0,0,0,0,0,0,0,0,0,0,0,0,0,0,0,0,0,0,0,0,0,0,0,0,0,0,0,0,0,0,0,0,0,0,0,0,0,0,0,
0,0,0,0,0,0,0,0,0,0,0,0,0,0,0,0,0,0,0,0,0,0,0,0,0,0,0,0,0,0,0,0,0,0,0,0,0,0,0,0,0,0,0,0,0,0,0,0,0,0,0,0,0,0,0,0,0,0,0,0,0,0,0,0,
0,0,0,0,0,0,0,0,0,0,0,0,0,0,0,0,0,0,0,0,0,0,0,0,0,0,0,0,0,0,0,0,0,0,0,0,0,0,0,0,0,0,0,0,0,0,0,0,0,0,0,0,0,0,0,0,0,0,0,0,0,0,0,0,
0,0,0,0,0,0,0,0,0,0,0,0,0,0,0,0,0,0,0,0,0,0,0,0,0,0,0,0,0,0,0,0,0,0,0,0,0,0,0,0,0,0,0,0,0,0,0,0,0,0,0,0,0,0,0,0,0,0,0,0,0,0,0,0,
0,0,0,0,0,0,0,0,0,0,0,0,0,0,0,0,0,0,0,0,0,0,0,0,0,0,0,0,0,0,0,0,0,0,0,0,0,0,0,0,0,0,0,0,0,0,0,0,0,0,0,0,0,0,0,0,0,0,0,0,0,0,0,0,
0,0,0,0,0,0,0,0,0,0,0,0,0,0,0,0,0,0,0,0,0,0,0,0,0,0,0,0,0,0,0,0,0,0,0,0,0,0,0,0,0,0,0,0,0,0,0,0,0,0,0,0,0,0,0,0,0,0,0,0,0,0,0,0,
0,0,0,0,0,0,0,0,0,0,0,0,0,0,0,0,0,0,0,0,0,0,0,0,0,0,0,0,0,0,0,0,0,0,0,0,0,0,0,0,0,0,0,0,0,0,0,0,0,0,0,0,0,0,0,0,0,0,0,0,0,0,0,0,
0,0,0,0,0,0,0,0,0,0,0,0,0,0,0,0,0,0,0,0,0,0,0,0,0,0,0,0,0,0,0,0,0,0,0,0,0,0,0,0,0,0,0,0,0,0,0,0,0,0,0,0,0,0,0,0,0,0,0,0,0,0,0,0,
0,0,0,0,0,0,0,0,0,0,0,0,0,0,0,0,0,0,0,0,0,0,0,0,0,0,0,0,0,0,0,0,0,0,0,0,0,0,0,0,0,0,0,0,0,0,0,0,0,0,0,0,0,0,0,0,0,0,0,0,0,0,0,0,
0,0,0,0,0,0,0,0,0,0,0,0,0,0,0,0,0,0,0,0,0,0,0,0,0,0,0,0,0,0,0,0,0,0,0,0,0,0,0,0,0,0,0,0,0,0,0,0,0,0,0,0,0,0,0,0,0,0,0,0,0,0,0,0,
0,0,0,0,0,0,0,0,0,0,0,0,0,0,0,0,0,0,0,0,0,0,0,0,0,0,0,0,0,0,0,0,0,0,0,0,0,0,0,0,0,0,0,0,0,0,0,0,0,0,0,0,0,0,0,0,0,0,0,0,0,0,0,0,
0,0,0,0,0,0,0,0,0,0,0,0,0,0,0,0,0,0,0,0,0,0,0,0,0,0,0,0,0,0,0,0,0,0,0,0,0,0,0,0,0,0,0,0,0,0,0,0,0,0,0,0,0,0,0,0,0,0,0,0,0,0,0,0,
0,0,0,0,0,0,0,0,0,0,0,0,0,0,0,0,0,0,0,0,0,0,0,0,0,0,0,0,0,0,0,0,0,0,0,0,0,0,0,0,0,0,0,0,0,0,0,0,0,0,0,0,0,0,0,0,0,0,0,0,0,0,0,0,
0,0,0,0,0,0,0,0,0,0,0,0,0,0,0,0,0,0,0,0,0,0,0,0,0,0,0,0,0,0,0,0,0,0,0,0,0,0,0,0,0,0,0,0,0,0,0,0,0,0,0,0,0,0,0,0,0,0,0,0,0,0,0,0,
0,0,0,0,0,0,0,0,0,0,0,0,0,0,0,0,0,0,0,0,0,0,0,0,0,0,0,0,0,0,0,0,0,0,0,0,0,0,0,0,0,0,0,0,0,0,0,0,0,0,0,0,0,0,0,0,0,0,0,0,0,0,0,0,
0,0,0,0,0,0,0,0,0,0,0,0,0,0,0,0,0,0,0,0,0,0,0,0,0,0,0,0,0,0,0,0,0,0,0,0,0,0,0,0,0,0,0,0,0,0,0,0,0,0,0,0,0,0,0,0,0,0,0,0,0,0,0,0,
0,0,0,0,0,0,0,0,0,0,0,0,0,0,0,0,0,0,0,0,0,0,0,0,0,0,0,0,0,0,0,0,0,0,0,0,0,0,0,0,0,0,0,0,0,0,0,0,0,0,0,0,0,0,0,0,0,0,0,0,0,0,0,0,
0,0,0,0,0,0,0,0,0,0,0,0,0,0,0,0,0,0,0,0,0,0,0,0,0,0,0,0,0,0,0,0,0,0,0,0,0,0,0,0,0,0,0,0,0,0,0,0,0,0,0,0,0,0,0,0,0,0,0,0,0,0,0,0,
0,0,0,0,0,0,0,0,0,0,0,0,0,0,0,0,0,0,0,0,0,0,0,0,0,0,0,0,0,0,0,0,0,0,0,0,0,0,0,0,0,0,0,0,0,0,0,0,0,0,0,0,0,0,0,0,0,0,0,0,0,0,0,0,
0,0,0,0,0,0,0,0,0,0,0,0,0,0,0,0,0,0,0,0,0,0,0,0,0,0,0,0,0,0,0,0,0,0,0,0,0,0,0,0,0,0,0,0,0,0,0,0,0,0,0,0,0,0,0,0,0,0,0,0,0,0,0,0,
0,0,0,0,0,0,0,0,0,0,0,0,0,0,0,0,0,0,0,0,0,0,0,0,0,0,0,0,0,0,0,0,0,0,0,0,0,0,0,0,0,0,0,0,0,0,0,0,0,0,0,0,0,0,0,0,0,0,0,0,0,0,0,0,
0,0,0,0,0,0,0,0,0,0,0,0,0,0,0,0,0,0,0,0,0,0,0,0,0,0,0,0,0,0,0,0,0,0,0,0,0,0,0,0,0,0,0,0,0,0,0,0,0,0,0,0,0,0,0,0,0,0,0,0,0,0,0,0,
0,0,0,0,0,0,0,0,0,0,0,0,0,0,0,0,0,0,0,0,0,0,0,0,0,0,0,0,0,0,0,0,0,0,0,0,0,0,0,0,0,0,0,0,0,0,0,0,0,0,0,0,0,0,0,0,0,0,0,0,0,0,0,0,
0,0,0,0,0,0,0,0,0,0,0,0,0,0,0,0,0,0,0,0,0,0,0,0,0,0,0,0,0,0,0,0,0,0,0,0,0,0,0,0,0,0,0,0,0,0,0,0,0,0,0,0,0,0,0,0,0,0,0,0,0,0,0,0,
0,0,0,0,0,0,0,0,0,0,0,0,0,0,0,0,0,0,0,0,0,0,0,0,0,0,0,0,0,0,0,0,0,0,0,0,0,0,0,0,0,0,0,0,0,0,0,0,0,0,0,0,0,0,0,0,0,0,0,0,0,0,0,0,
0,0,0,0,0,0,0,0,0,0,0,0,0,0,0,0,0,0,0,0,0,0,0,0,0,0,0,0,0,0,0,0,0,0,0,0,0,0,0,0,0,0,0,0,0,0,0,0,0,0,0,0,0,0,0,0,0,0,0,0,0,0,0,0,
0,0,0,0,0,0,0,0,0,0,0,0,0,0,0,0,0,0,0,0,0,0,0,0,0,0,0,0,0,0,0,0,0,0,0,0,0,0,0,0,0,0,0,0,0,0,0,0,0,0,0,0,0,0,0,0,0,0,0,0,0,0,0,0,
0,0,0,0,0,0,0,0,0,0,0,0,0,0,0,0,0,0,0,0,0,0,0,0,0,0,0,0,0,0,0,0,0,0,0,0,0,0,0,0,0,0,0,0,0,0,0,0,0,0,0,0,0,0,0,0,0,0,0,0,0,0,0,0,
0,0,0,0,0,0,0,0,0,0,0,0,0,0,0,0,0,0,0,0,0,0,0,0,0,0,0,0,0,0,0,0,0,0,0,0,0,0,0,0,0,0,0,0,0,0,0,0,0,0,0,0,0,0,0,0,0,0,0,0,0,0,0,0,
0,0,0,0,0,0,0,0,0,0,0,0,0,0,0,0,0,0,0,0,0,0,0,0,0,0,0,0,0,0,0,0,0,0,0,0,0,0,0,0,0,0,0,0,0,0,0,0,0,0,0,0,0,0,0,0,0,0,0,0,0,0,0,0,
0,0,0,0,0,0,0,0,0,0,0,0,0,0,0,0,0,0,0,0,0,0,0,0,0,0,0,0,0,0,0,0,0,0,0,0,0,0,0,0,0,0,0,0,0,0,0,0,0,0,0,0,0,0,0,0,0,0,0,0,0,0,0,0,
0,0,0,0,0,0,0,0,0,0,0,0,0,0,0,0,0,0,0,0,0,0,0,0,0,0,0,0,0,0,0,0,0,0,0,0,0,0,0,0,0,0,0,0,0,0,0,0,0,0,0,0,0,0,0,0,0,0,0,0,0,0,0,0,
0,0,0,0,0,0,0,0,0,0,0,0,0,0,0,0,0,0,0,0,0,0,0,0,0,0,0,0,0,0,0,0,0,0,0,0,0,0,0,0,0,0,0,0,0,0,0,0,0,0,0,0,0,0,0,0,0,0,0,0,0,0,0,0,
0,0,0,0,0,0,0,0,0,0,0,0,0,0,0,0,0,0,0,0,0,0,0,0,0,0,0,0,0,0,0,0,0,0,0,0,0,0,0,0,0,0,0,0,0,0,0,0,0,0,0,0,0,0,0,0,0,0,0,0,0,0,0,0,
0,0,0,0,0,0,0,0,0,0,0,0,0,0,0,0,0,0,0,0,0,0,0,0,0,0,0,0,0,0,0,0,0,0,0,0,0,0,0,0,0,0,0,0,0,0,0,0,0,0,0,0,0,0,0,0,0,0,0,0,0,0,0,0,
0,0,0,0,0,0,0,0,0,0,0,0,0,0,0,0,0,0,0,0,0,0,0,0,0,0,0,0,0,0,0,0,0,0,0,0,0,0,0,0,0,0,0,0,0,0,0,0,0,0,0,0,0,0,0,0,0,0,0,0,0,0,0,0,
0,0,0,0,0,0,0,0,0,0,0,0,0,0,0,0,0,0,0,0,0,0,0,0,0,0,0,0,0,0,0,0,0,0,0,0,0,0,0,0,0,0,0,0,0,0,0,0,0,0,0,0,0,0,0,0,0,0,0,0,0,0,0,0,
0,0,0,0,0,0,0,0,0,0,0,0,0,0,0,0,0,0,0,0,0,0,0,0,0,0,0,0,0,0,0,0,0,0,0,0,0,0,0,0,0,0,0,0,0,0,0,0,0,0,0,0,0,0,0,0,0,0,0,0,0,0,0,0,
0,0,0,0,0,0,0,0,0,0,0,0,0,0,0,0,0,0,0,0,0,0,0,0,0,0,0,0,0,0,0,0,0,0,0,0,0,0,0,0,0,0,0,0,0,0,0,0,0,0,0,0,0,0,0,0,0,0,0,0,0,0,0,0,
0,0,0,0,0,0,0,0,0,0,0,0,0,0,0,0,0,0,0,0,0,0,0,0,0,0,0,0,0,0,0,0,0,0,0,0,0,0,0,0,0,0,0,0,0,0,0,0,0,0,0,0,0,0,0,0,0,0,0,0,0,0,0,0,
0,0,0,0,0,0,0,0,0,0,0,0,0,0,0,0,0,0,0,0,0,0,0,0,0,0,0,0,0,0,0,0,0,0,0,0,0,0,0,0,0,0,0,0,0,0,0,0,0,0,0,0,0,0,0,0,0,0,0,0,0,0,0,0,
0,0,0,0,0,0,0,0,0,0,0,0,0,0,0,0,0,0,0,0,0,0,0,0,0,0,0,0,0,0,0,0,0,0,0,0,0,0,0,0,0,0,0,0,0,0,0,0,0,0,0,0,0,0,0,0,0,0,0,0,0,0,0,0,
0,0,0,0,0,0,0,0,0,0,0,0,0,0,0,0,0,0,0,0,0,0,0,0,0,0,0,0,0,0,0,0,0,0,0,0,0,0,0,0,0,0,0,0,0,0,0,0,0,0,0,0,0,0,0,0,0,0,0,0,0,0,0,0,
0,0,0,0,0,0,0,0,0,0,0,0,0,0,0,0,0,0,0,0,0,0,0,0,0,0,0,0,0,0,0,0,0,0,0,0,0,0,0,0,0,0,0,0,0,0,0,0,0,0,0,0,0,0,0,0,0,0,0,0,0,0,0,0,
0,0,0,0,0,0,0,0,0,0,0,0,0,0,0,0,0,0,0,0,0,0,0,0,0,0,0,0,0,0,0,0,0,0,0,0,0,0,0,0,0,0,0,0,0,0,0,0,0,0,0,0,0,0,0,0,0,0,0,0,0,0,0,0,
0,0,0,0,0,0,0,0,0,0,0,0,0,0,0,0,0,0,0,0,0,0,0,0,0,0,0,0,0,0,0,0,0,0,0,0,0,0,0,0,0,0,0,0,0,0,0,0,0,0,0,0,0,0,0,0,0,0,0,0,0,0,0,0,
0,0,0,0,0,0,0,0,0,0,0,0,0,0,0,0,0,0,0,0,0,0,0,0,0,0,0,0,0,0,0,0,0,0,0,0,0,0,0,0,0,0,0,0,0,0,0,0,0,0,0,0,0,0,0,0,0,0,0,0,0,0,0,0,
0,0,0,0,0,0,0,0,0,0,0,0,0,0,0,0,0,0,0,0,0,0,0,0,0,0,0,0,0,0,0,0,0,0,0,0,0,0,0,0,0,0,0,0,0,0,0,0,0,0,0,0,0,0,0,0,0,0,0,0,0,0,0,0,
0,0,0,0,0,0,0,0,0,0,0,0,0,0,0,0,0,0,0,0,0,0,0,0,0,0,0,0,0,0,0,0,0,0,0,0,0,0,0,0,0,0,0,0,0,0,0,0,0,0,0,0,0,0,0,0,0,0,0,0,0,0,0,0,
0,0,0,0,0,0,0,0,0,0,0,0,0,0,0,0,0,0,0,0,0,0,0,0,0,0,0,0,0,0,0,0,0,0,0,0,0,0,0,0,0,0,0,0,0,0,0,0,0,0,0,0,0,0,0,0,0,0,0,0,0,0,0,0,
0,0,0,0,0,0,0,0,0,0,0,0,0,0,0,0,0,0,0,0,0,0,0,0,0,0,0,0,0,0,0,0,0,0,0,0,0,0,0,0,0,0,0,0,0,0,0,0,0,0,0,0,0,0,0,0,0,0,0,0,0,0,0,0,
0,0,0,0,0,0,0,0,0,0,0,0,0,0,0,0,0,0,0,0,0,0,0,0,0,0,0,0,0,0,0,0,0,0,0,0,0,0,0,0,0,0,0,0,0,0,0,0,0,0,0,0,0,0,0,0,0,0,0,0,0,0,0,0,
0,0,0,0,0,0,0,0,0,0,0,0,0,0,0,0,0,0,0,0,0,0,0,0,0,0,0,0,0,0,0,0,0,0,0,0,0,0,0,0,0,0,0,0,0,0,0,0,0,0,0,0,0,0,0,0,0,0,0,0,0,0,0,0,
0,0,0,0,0,0,0,0,0,0,0,0,0,0,0,0,0,0,0,0,0,0,0,0,0,0,0,0,0,0,0,0,0,0,0,0,0,0,0,0,0,0,0,0,0,0,0,0,0,0,0,0,0,0,0,0,0,0,0,0,0,0,0,0,
0,0,0,0,0,0,0,0,0,0,0,0,0,0,0,0,0,0,0,0,0,0,0,0,0,0,0,0,0,0,0,0,0,0,0,0,0,0,0,0,0,0,0,0,0,0,0,0,0,0,0,0,0,0,0,0,0,0,0,0,0,0,0,0
</data>
 </layer>
</map>
