{ "compressionlevel":-1,
 "height":3,
 "infinite":false,
 "layers":[
        {
         "data":[449, 450, 451, 451,
            481, 482, 483, 483,
            0, 0, 0, 0],
         "height":3,
         "id":1,
         "name":"Tile Layer 1",
         "opacity":1,
         "type":"tilelayer",
         "visible":true,
         "width":4,
         "x":0,
         "y":0
        }],
 "nextlayerid":2,
 "nextobjectid":1,
 "orientation":"orthogonal",
 "renderorder":"right-down",
 "tiledversion":"1.11.2",
 "tileheight":32,
 "tilesets":[
        {
         "firstgid":1,
         "source":"trees_other.tsx"
        }],
 "tilewidth":32,
 "type":"map",
 "version":"1.10",
 "width":4
}